docs/img/dist/icon-faq-08.svg

<svg width="22" height="22" viewBox="0 0 22 22" fill="none" xmlns="http://www.w3.org/2000/svg">
<path d="M13.475 1.8501C13.8892 1.8501 14.225 1.51431 14.225 1.1001C14.225 0.685884 13.8892 0.350098 13.475 0.350098C13.0608 0.350098 12.725 0.685884 12.725 1.1001C12.725 1.51431 13.0608 1.8501 13.475 1.8501Z" fill="#D61635"/>
<path d="M6.04999 6.80005C6.4642 6.80005 6.79999 6.46426 6.79999 6.05005C6.79999 5.63584 6.4642 5.30005 6.04999 5.30005C5.63577 5.30005 5.29999 5.63584 5.29999 6.05005C5.29999 6.46426 5.63577 6.80005 6.04999 6.80005Z" fill="#D61635"/>
<path d="M15.95 7.92501C16.2695 7.91321 16.5807 7.81989 16.854 7.65393C17.1273 7.48797 17.3537 7.25487 17.5115 6.97679C17.6693 6.69871 17.7534 6.38489 17.7558 6.06516C17.7581 5.74542 17.6787 5.43039 17.525 5.15L16.475 3.27501C16.4231 3.18122 16.3471 3.10305 16.2547 3.04862C16.1624 2.99419 16.0572 2.96548 15.95 2.96548C15.8428 2.96548 15.7376 2.99419 15.6453 3.04862C15.5529 3.10305 15.4769 3.18122 15.425 3.27501L14.3 5.15C14.1436 5.43592 14.0643 5.75768 14.0702 6.08355C14.076 6.40942 14.1667 6.72814 14.3332 7.00828C14.4998 7.28842 14.7365 7.5203 15.02 7.68106C15.3036 7.84182 15.6241 7.9259 15.95 7.92501ZM15.95 4.85001L16.55 6.05C16.55 6.21908 16.4828 6.38123 16.3633 6.50079C16.2437 6.62034 16.0816 6.68751 15.9125 6.68751C15.7434 6.68751 15.5813 6.62034 15.4617 6.50079C15.3422 6.38123 15.275 6.21908 15.275 6.05C15.275 5.90001 15.275 5.82501 15.95 4.85001ZM9.8 5.45001C10.1131 5.42624 10.4152 5.32424 10.6786 5.15335C10.942 4.98247 11.1582 4.74818 11.3075 4.47198C11.4568 4.19577 11.5344 3.8865 11.5331 3.57253C11.5317 3.25856 11.4516 2.94995 11.3 2.675L10.4 0.800005C10.3481 0.706224 10.2721 0.628054 10.1797 0.573621C10.0874 0.519187 9.98218 0.490479 9.875 0.490479C9.76782 0.490479 9.6626 0.519187 9.57027 0.573621C9.47795 0.628054 9.40189 0.706224 9.35 0.800005L8.15 2.75001C7.99356 3.03592 7.91434 3.35768 7.92017 3.68355C7.926 4.00942 8.01667 4.32814 8.18324 4.60828C8.34981 4.88842 8.58653 5.1203 8.87004 5.28106C9.15356 5.44182 9.47408 5.5259 9.8 5.525V5.45001ZM9.8 2.37501C10.325 3.35 10.4 3.35 10.4 3.575C10.4 3.74408 10.3328 3.90623 10.2133 4.02579C10.0937 4.14534 9.93157 4.2125 9.7625 4.2125C9.59342 4.2125 9.43127 4.14534 9.31172 4.02579C9.19216 3.90623 9.125 3.74408 9.125 3.575C9.125 3.35 9.125 3.35 9.8 2.37501ZM21.2 14.975C21.0351 14.704 20.804 14.4793 20.5286 14.3219C20.2531 14.1645 19.9422 14.0795 19.625 14.075C19.1718 13.4549 18.5029 13.0268 17.75 12.875C17.6176 12.2044 17.2656 11.597 16.7494 11.1488C16.2333 10.7005 15.5826 10.4371 14.9 10.4C14.5552 9.65728 14.0044 9.02919 13.313 8.59044C12.6217 8.15168 11.8188 7.92072 11 7.92501C10.1812 7.92072 9.37833 8.15168 8.68696 8.59044C7.99558 9.02919 7.44476 9.65728 7.1 10.4C6.36121 10.4491 5.66667 10.7696 5.15 11.3C4.6517 11.7785 4.3338 12.4143 4.25 13.1C3.86742 13.3309 3.53571 13.6371 3.275 14H1.1C0.94087 14 0.788258 14.0632 0.675736 14.1757C0.563214 14.2883 0.5 14.4409 0.5 14.6L0.5 19.55C0.5 19.85 0.8 20.15 1.1 20.15H6.05L13.4 21.425C13.8472 21.4815 14.2999 21.375 14.675 21.125L20.675 17.45C21.0757 17.1757 21.3543 16.7566 21.4522 16.281C21.5501 15.8054 21.4597 15.3103 21.2 14.9V14.975ZM8.6 12.125C8.7094 12.2444 8.86173 12.3154 9.02348 12.3224C9.18523 12.3294 9.34315 12.2719 9.4625 12.1625C9.58185 12.0531 9.65285 11.9008 9.65988 11.739C9.66691 11.5773 9.6094 11.4194 9.5 11.3C9.20854 10.9768 8.85026 10.7209 8.45 10.55C8.7184 10.1149 9.09355 9.75557 9.53984 9.50617C9.98613 9.25678 10.4888 9.12557 11 9.12501C11.5184 9.13335 12.0258 9.27592 12.4728 9.53881C12.9197 9.8017 13.2908 10.1759 13.55 10.625C13.1565 10.7739 12.7988 11.0039 12.5 11.3C12.4458 11.3591 12.4038 11.4283 12.3764 11.5036C12.349 11.5789 12.3366 11.6589 12.3401 11.739C12.3436 11.8191 12.3628 11.8977 12.3967 11.9704C12.4306 12.0431 12.4784 12.1083 12.5375 12.1625C12.5966 12.2167 12.6658 12.2587 12.7411 12.2861C12.8164 12.3135 12.8964 12.3259 12.9765 12.3224C13.0566 12.3189 13.1352 12.2997 13.2079 12.2658C13.2805 12.2319 13.3458 12.1841 13.4 12.125C14.525 11 16.55 11.825 16.55 13.475C16.55 13.775 16.85 14.075 17.15 14.075C17.6 14.075 17.975 14.225 18.35 14.525L15.125 16.175C14.92 15.562 14.5271 15.0291 14.002 14.6521C13.4769 14.2751 12.8464 14.0732 12.2 14.075H9.95L7.55 12.875C6.96659 12.5976 6.31583 12.4935 5.675 12.575C5.8115 12.3125 6.00818 12.0861 6.24896 11.9141C6.48974 11.7422 6.76779 11.6297 7.06037 11.5858C7.35296 11.5419 7.65178 11.5679 7.9324 11.6616C8.21303 11.7553 8.46749 11.9141 8.675 12.125H8.6ZM20 16.475L14.075 20.225C13.9307 20.2834 13.7693 20.2834 13.625 20.225L6.275 19.025C6.2252 19.0187 6.1748 19.0187 6.125 19.025H1.7V15.275H3.65C3.75623 15.276 3.86081 15.2487 3.95305 15.196C4.04529 15.1433 4.12189 15.067 4.175 14.975C4.4214 14.4809 4.85251 14.1036 5.375 13.925C5.64082 13.8253 5.92408 13.7806 6.20768 13.7935C6.49128 13.8064 6.76932 13.8766 7.025 14L9.5 15.275C9.59839 15.3004 9.70161 15.3004 9.8 15.275H12.2C13.025 15.275 13.7 15.8 14 16.55H9.8C9.71515 16.5393 9.62899 16.5469 9.5473 16.5722C9.46561 16.5975 9.39028 16.64 9.32636 16.6969C9.26244 16.7537 9.21141 16.8235 9.17668 16.9017C9.14195 16.9798 9.12433 17.0645 9.125 17.15C9.125 17.525 9.425 17.75 9.8 17.75H14.675C14.7734 17.7754 14.8766 17.7754 14.975 17.75L19.325 15.35C19.4673 15.2865 19.6273 15.2742 19.7777 15.3152C19.9281 15.3562 20.0596 15.448 20.15 15.575C20.2346 15.7254 20.2585 15.9024 20.2166 16.0698C20.1748 16.2372 20.0704 16.3822 19.925 16.475H20Z" fill="#202020"/>
</svg>

<svg width="22" height="22" fill="none" xmlns="http://www.w3.org/2000/svg"><path d="M13.475 1.85a.75.75 0 100-1.5.75.75 0 000 1.5zM6.05 6.8a.75.75 0 100-1.5.75.75 0 000 1.5z" fill="#D61635"/><path d="M15.95 7.925a1.875 1.875 0 001.575-2.775l-1.05-1.875a.6.6 0 00-1.05 0L14.3 5.15a1.875 1.875 0 001.65 2.775zm0-3.075l.6 1.2a.638.638 0 01-1.275 0c0-.15 0-.225.675-1.2zm-6.15.6a1.875 1.875 0 001.5-2.775L10.4.8a.6.6 0 00-1.05 0l-1.2 1.95A1.875 1.875 0 009.8 5.525V5.45zm0-3.075c.525.975.6.975.6 1.2a.638.638 0 01-1.275 0c0-.225 0-.225.675-1.2zm11.4 12.6a1.875 1.875 0 00-1.575-.9 3.075 3.075 0 00-1.875-1.2A3.075 3.075 0 0014.9 10.4 4.275 4.275 0 0011 7.925 4.275 4.275 0 007.1 10.4a3 3 0 00-1.95.9 3 3 0 00-.9 1.8 3.3 3.3 0 00-.975.9H1.1a.6.6 0 00-.6.6v4.95c0 .3.3.6.6.6h4.95l7.35 1.275c.447.056.9-.05 1.275-.3l6-3.675a1.875 1.875 0 00.525-2.55v.075zm-12.6-2.85a.61.61 0 10.9-.825 3 3 0 00-1.05-.75A3 3 0 0111 9.125a3 3 0 012.55 1.5 3 3 0 00-1.05.675.61.61 0 10.9.825c1.125-1.125 3.15-.3 3.15 1.35 0 .3.3.6.6.6.45 0 .825.15 1.2.45l-3.225 1.65a3.076 3.076 0 00-2.925-2.1H9.95l-2.4-1.2a3.375 3.375 0 00-1.875-.3 1.876 1.876 0 013-.45H8.6zm11.4 4.35l-5.925 3.75a.6.6 0 01-.45 0l-7.35-1.2a.598.598 0 00-.15 0H1.7v-3.75h1.95a.6.6 0 00.525-.3 2.1 2.1 0 011.2-1.05 2.1 2.1 0 011.65.075L9.5 15.275a.6.6 0 00.3 0h2.4c.825 0 1.5.525 1.8 1.275H9.8a.6.6 0 00-.675.6c0 .375.3.6.675.6h4.875a.6.6 0 00.3 0l4.35-2.4a.675.675 0 01.825.225.675.675 0 01-.225.9H20z" fill="#202020"/></svg>
